X:3489
T:Cottagers,The. GS.049
T:Trip to the Cottage,aka. GS.049
M:6/8
L:1/8
Q:120
S:George Spencer m/s, Leeds,1831
R:Jig
O:England
A:Leeds
N:Title could be  'The Cottagers' - possibly it's a version of 'The Trip
N:to the Cottage'
H:1831
Z:vmp.Cherri Graebe
K:G major
d | dBB BGG | cAA AFF | DGG FAA | GBB ABc | dBB BGG |! cAA AFD | DGG FAA
 | BGG G2 :||
d | gfe d2 B | edc Bcd |! ecA dBG | FAG FED | gfe d2 B | edc Bcd | efg f
ag | ge^c "DC"d2 ||


